dist/svgs/carbon-icons/svg/help.svg

<svg xmlns="http://www.w3.org/2000/svg" fill-rule="evenodd" viewBox="0 0 24 24"><path d="M12 2c5.5 0 10 4.5 10 10s-4.5 10-10 10S2 17.5 2 12 6.5 2 12 2zm0-2C5.4 0 0 5.4 0 12s5.4 12 12 12 12-5.4 12-12S18.6 0 12 0z"/><path d="M8.3 10c.2-2 1.5-3.5 3.7-3.5 2.8 0 3.7 1.8 3.7 2.9 0 2.9-2.5 2.5-2.7 4.3V15h-2v-1c.2-2.6 2.4-2.8 2.3-4.4 0-.9-.5-1.3-1.3-1.3-1 0-1.5.8-1.5 1.7H8.3zm2.7 6h2v2h-2v-2z"/></svg>

<svg width="24px" height="24px" viewBox="0 0 24 24" version="1.1" xmlns="http://www.w3.org/2000/svg" xmlns:xlink="http://www.w3.org/1999/xlink" fill-rule="evenodd">
	<path d="M12,2 C17.5,2 22,6.5 22,12 C22,17.5 17.5,22 12,22 C6.5,22 2,17.5 2,12 C2,6.5 6.5,2 12,2 L12,2 Z M12,0 C5.4,0 0,5.4 0,12 C0,18.6 5.4,24 12,24 C18.6,24 24,18.6 24,12 C24,5.4 18.6,0 12,0 L12,0 L12,0 Z" id="Shape" fill="#000000"></path>
	<path d="M8.3,10 C8.5,8 9.8,6.5 12,6.5 C14.8,6.5 15.7,8.3 15.7,9.4 C15.7,12.3 13.2,11.9 13,13.7 L13,15 L11,15 L11,14 C11.2,11.4 13.4,11.2 13.3,9.6 C13.3,8.7 12.8,8.3 12,8.3 C11,8.3 10.5,9.1 10.5,10 C10.5,10 8.4,10 8.3,10 L8.3,10 Z M11,16 L13,16 L13,18 L11,18 L11,16 L11,16 Z" id="Shape" fill="#000000"></path>
</svg>
